X: 8552
T: Cricket's March Over The Salt Box, The
R: jig
M: 6/8
K: Dmajor
|:A|"D"D>ED F>ED|"D"F2A "G"d2A|"D"B>cd A2F|"A"E2D "G"B3|
"D"D>ED F>ED|"D"F2A "G"d2A|"D"B>cd A2F|"A"E2D "D"D2:|
|:B|"D"A2F F>EF|"G"d2B B>AB|"Bm"f2B B>AB|"D"a2f f>ef|
"G"g>fe "D"f>ed|"Bm"de2A "D"d2A|"G"B>cd "D"A2F|"A"E2D "D"D2:|

